X: 1
T: Callaghan's
M: 4/4
L: 1/8
R: reel
K: Dmaj
|AFFE FEDE|~F3E F2dB|AFFE FEDE|F2BF FEE2|
AFFE FEDE|~F3E F2dB|AFFE FEDE|F2EG FDD2||
A3B A~F3|ABde fee2|fedB ABdB|ABde fedB|
A3B A~F3|ABde fee2|fedB ABdB|ABde fedB||
